www/assets/icons/design_services.svg

<svg width="24" height="24" viewBox="0 0 24 24" xmlns="http://www.w3.org/2000/svg" fill='currentColor'><path d="M16.2388 11.5095L17.8088 9.9395L14.0588 6.1895L12.4888 7.7595L8.34878 3.6295C7.56878 2.8495 6.29878 2.8495 5.51878 3.6295L3.61878 5.5295C2.83878 6.3095 2.83878 7.5795 3.61878 8.3595L7.74878 12.4895L2.99878 17.2495V20.9995H6.74878L11.5088 16.2395L15.6388 20.3695C16.5888 21.3195 17.8688 20.9695 18.4688 20.3695L20.3688 18.4695C21.1488 17.6895 21.1488 16.4195 20.3688 15.6395L16.2388 11.5095ZM9.17878 11.0695L5.03878 6.9395L6.92878 5.0395L8.19878 6.3095L7.01878 7.4995L8.42878 8.9095L9.61878 7.7195L11.0688 9.1695L9.17878 11.0695ZM17.0588 18.9595L12.9288 14.8295L14.8288 12.9295L16.2788 14.3795L15.0888 15.5695L16.4988 16.9795L17.6888 15.7895L18.9588 17.0595L17.0588 18.9595Z"/><path d="M20.7088 7.0395C21.0988 6.6495 21.0988 6.0195 20.7088 5.6295L18.3688 3.2895C17.8988 2.8195 17.2488 2.9995 16.9588 3.2895L15.1288 5.1195L18.8788 8.8695L20.7088 7.0395Z"/></svg>

<svg xmlns="http://www.w3.org/2000/svg" width="24" height="24" viewBox="0 0 24 24" fill='currentColor'><path d="m16.239 11.51 1.57-1.57-3.75-3.75-1.57 1.57-4.14-4.13c-.78-.78-2.05-.78-2.83 0l-1.9 1.9c-.78.78-.78 2.05 0 2.83l4.13 4.13-4.75 4.76V21h3.75l4.76-4.76 4.13 4.13c.95.95 2.23.6 2.83 0l1.9-1.9c.78-.78.78-2.05 0-2.83zm-7.06-.44-4.14-4.13 1.89-1.9 1.27 1.27-1.18 1.19 1.41 1.41 1.19-1.19 1.45 1.45zm7.88 7.89-4.13-4.13 1.9-1.9 1.45 1.45-1.19 1.19 1.41 1.41 1.19-1.19 1.27 1.27zm3.65-11.92a.996.996 0 0 0 0-1.41l-2.34-2.34c-.47-.47-1.12-.29-1.41 0l-1.83 1.83 3.75 3.75z"/></svg>
